X:217
T:I'm On My Way Back To The Old Home
C:Bill Monroe
N:Transcribed by Mike Stangeland
R:bluegrass
L:1/8
Q:1/4=230
M:4/4
K:A
z8 | z2 AA E2 A2 | "A"[ee][ee] [ee][ee] [ee][ee] [ee][ee] | ee ef e=c BA | "D"D2 D2 FA AB | 
=c2 {B}c2 cB AF | "A"E2 EE EF AA | Ac ce ef ec | "E"B2 BA GA FG | E2 EE EF A2 | 
"A"[ae][ae] [ae][ae] z[ae] [ae][ae] | af e=c zB {B}cB | "D"D2 DD FA AB | =c2 {B}c2 cB AF | 
"A"E2 EE FA AA | "E"af e=c ^cA FE | "A"[A2E2] [AE][AE] z[AE] [AE][AE] | [A8E8] | 


